X:66
T:Bruce's Address
C:Sailing Masters
M:6/8
L:1/8
K:Amix
A|A2A AFA|B2c d2c|BBB B2A|B2c d2e|f2g e2f|d2e fed|BBB BAF|A3 z2::
f|f2f f2e|f2g a3|eee e2d|e2f g3|a2f e2f|d2e fed|BBB BAF|A3 z2:|
%%%newpage
